lib/brands/logos/sharecare.svg

<svg xmlns="http://www.w3.org/2000/svg" fill="none" aria-hidden="true" viewBox="0 0 275 43"><g id="Sharecare"><g id="Group"><path id="Vector" fill="#343534" fill-rule="evenodd" d="M21.3861 34.1451C19.6592 34.1633 17.9458 33.8388 16.3451 33.1905C14.7444 32.5421 13.2881 31.5829 12.0605 30.3681C10.833 29.1533 9.85844 27.7072 9.19336 26.1134C8.52827 24.5196 8.18582 22.8097 8.18582 21.0827C8.18582 19.3556 8.52827 17.6458 9.19336 16.0519C9.85844 14.4581 10.833 13.012 12.0605 11.7972C13.2881 10.5825 14.7444 9.62317 16.3451 8.97485C17.9458 8.32653 19.6592 8.00204 21.3861 8.02017C23.1016 8.01979 24.8003 8.35738 26.3853 9.01364C27.9703 9.6699 29.4105 10.632 30.6236 11.8449C31.8366 13.0579 32.7989 14.498 33.4553 16.0829C34.1118 17.6678 34.4495 19.3665 34.4493 21.0819C34.4495 22.7975 34.1118 24.4962 33.4554 26.0812C32.7989 27.6662 31.8367 29.1064 30.6236 30.3194C29.4106 31.5325 27.9704 32.4947 26.3854 33.1512C24.8004 33.8076 23.1017 34.1453 21.3861 34.1451V34.1451ZM42.9231 38.1115L34.9646 31.6324C37.4284 28.6562 38.5768 25.2497 38.5768 21.0834C38.5768 11.585 30.8802 3.89124 21.3861 3.89124C11.892 3.89124 4.19543 11.585 4.19543 21.0819C4.19543 30.576 11.892 38.2741 21.3861 38.2741C25.4158 38.2741 29.1158 36.8781 32.046 34.5567L33.7067 38.1115H42.9231Z" clip-rule="evenodd"/><path id="Vector_2" fill="#00BFA5" fill-rule="evenodd" d="M25.4877 13.7926C25.7367 13.7926 26.0087 13.807 26.298 13.8358C28.0537 14.0027 30.0858 15.6131 30.3276 18.6958V18.6814C30.3276 24.274 21.3689 29.8205 21.3689 29.8205C21.3689 29.8205 12.4087 24.061 12.4087 18.6814V18.6958C12.662 15.6131 14.6883 14.0042 16.4441 13.8343C16.729 13.8056 17.001 13.7926 17.2572 13.7926C19.2864 13.7926 20.2578 14.1524 21.3689 15.4793C22.4828 14.1524 23.4556 13.7926 25.4877 13.7926" clip-rule="evenodd"/><g id="Vector_3"><path fill="#343534" fill-rule="evenodd" d="M50.2397 29.8291H54.4622V30.6407C54.8681 33.0341 57.0599 34.5078 60.2102 34.5078C63.2123 34.5078 65.1422 33.3392 65.1422 31.5086C65.1422 27.0313 56.6972 29.8766 52.1222 25.3058C50.9227 24.0795 50.2476 22.4346 50.2397 20.7192C50.2397 16.6004 53.7988 13.6515 58.6847 13.6515C60.8708 13.6515 62.959 14.1595 64.5334 15.0245V14.0588H68.7041V21.9957H64.5334V20.5163C63.1605 18.4856 61.3788 17.566 58.9351 17.566C56.3921 17.566 54.7184 18.7346 54.7184 20.5163C54.7184 24.5373 63.9722 22.1958 67.9399 26.1635C69.3647 27.5912 69.9835 29.4722 69.9835 31.1502C69.9835 35.5252 66.2662 38.4741 60.77 38.4741C58.1738 38.4741 56.1921 37.9171 54.4622 36.7471V38.0725H50.2397V29.8291ZM75.8236 7.69918H71.5004V3.52563H80.6102V16.8047C83.6037 14.3668 85.9941 13.3435 88.5918 13.3435C92.3537 13.3435 95.2033 15.2245 95.2033 20.6199V33.899H99.3293V38.0725H90.421V21.636C90.421 19.2945 89.7114 17.566 87.475 17.566C85.7451 17.566 83.3043 18.6857 80.6102 20.7192V33.899H84.7262V38.0725H71.4486V33.899H75.8236V7.69918ZM116.11 29.1138C114.076 27.5394 111.939 26.7248 109.903 26.7248C107.258 26.7248 105.328 28.4518 105.328 30.8422C105.328 33.1881 107.108 34.8157 109.651 34.8157C111.784 34.8157 114.174 33.7436 116.11 31.9633V29.1138ZM125.012 38.074H116.671V35.1165C113.672 37.5588 111.587 38.4755 108.939 38.4755C104.359 38.4755 100.797 35.1165 100.797 30.8422C100.797 26.4715 104.615 23.0622 109.55 23.0622C111.687 23.0622 114.174 23.8249 116.11 25.0986V21.9411C116.11 18.5346 113.614 17.3113 110.771 17.3113C108.478 17.3113 106.701 18.2784 105.633 20.1666L101.102 18.939C103.139 15.226 106.597 13.3435 111.48 13.3435C118.503 13.3435 120.892 16.858 120.892 20.7207V33.9033H125.012V38.074ZM132.538 18.2266H127.707V14.0588H136.301V19.4499H136.405C137.933 15.4318 140.986 13.6501 143.985 13.6501H147.083V18.4338H144.542C139.001 18.4338 137.32 21.5352 137.32 27.0313V33.9019H142.511V38.0725H127.807V33.9019H132.538V18.2266Z" clip-rule="evenodd"/><path fill="#343534" fill-rule="evenodd" d="M166.67 23.7702C165.908 19.9579 162.551 17.1573 158.787 17.1573C155.023 17.1573 152.171 19.755 151.458 23.7702H166.67ZM151.309 27.2343C152.025 31.913 155.075 34.6071 159.546 34.6071C162.652 34.6071 165.551 33.2341 167.332 30.6926L171.501 32.5217C168.911 36.5413 164.582 38.782 159.45 38.782C151.663 38.782 146.07 33.4903 146.07 26.0628C146.07 18.2813 152.43 13.3435 158.683 13.3435C165.349 13.3435 171.501 18.4367 171.501 27.2343H151.309Z" clip-rule="evenodd"/></g><path id="Vector_4" fill="#00BFA5" fill-rule="evenodd" d="M195.969 23.1125H191.697C191.441 21.4287 190.733 20.0615 189.612 19.0972C188.544 18.1805 187.07 17.6681 185.338 17.6681C181.063 17.6681 178.217 20.9753 178.217 25.8066C178.217 30.9487 181.213 34.4588 185.539 34.4588C188.744 34.4588 191.339 32.7749 192.766 29.7239L196.681 31.5531C194.596 36.2879 190.629 38.7805 185.384 38.7805C177.045 38.7805 173.131 31.9618 173.131 25.8612C173.131 18.9418 178.366 13.342 184.93 13.342C187.529 13.342 189.913 14.158 191.697 15.6835V14.0573H195.969V23.1125V23.1125ZM214.383 29.1137C212.346 27.5393 210.212 26.7247 208.175 26.7247C205.529 26.7247 203.596 28.4517 203.596 30.8422C203.596 33.188 205.381 34.8157 207.922 34.8157C210.059 34.8157 212.45 33.7435 214.383 31.9633V29.1137V29.1137ZM223.284 38.0739H214.94V35.1165C211.945 37.5587 209.859 38.4754 207.211 38.4754C202.632 38.4754 199.07 35.1165 199.07 30.8422C199.07 26.4714 202.887 23.0621 207.821 23.0621C209.956 23.0621 212.45 23.8248 214.383 25.0985V21.941C214.383 18.5345 211.886 17.3112 209.043 17.3112C206.756 17.3112 204.97 18.2783 203.904 20.1665L199.376 18.9389C201.41 15.2259 204.868 13.3435 209.756 13.3435C216.772 13.3435 219.168 16.855 219.168 20.7206V33.9032H223.284V38.0739V38.0739ZM230.813 18.2265H225.982V14.0587H234.575V19.4498H234.673C236.202 15.4317 239.255 13.65 242.253 13.65H245.362V18.4338H242.817C237.269 18.4338 235.596 21.5352 235.596 27.027V33.9018H240.784V38.0725H226.083V33.9018H230.813V18.2265ZM265.973 23.7702C265.206 19.9578 261.852 17.1572 258.087 17.1572C254.319 17.1572 251.47 19.7549 250.757 23.7702H265.973V23.7702ZM250.609 27.2313C251.318 31.9129 254.375 34.607 258.847 34.607C261.952 34.607 264.849 33.234 266.631 30.6925L270.805 32.5217C268.208 36.5412 263.882 38.7777 258.749 38.7777C250.956 38.7777 245.369 33.4902 245.369 26.0627C245.369 18.2812 251.733 13.3435 257.982 13.3435C264.649 13.3435 270.805 18.4366 270.805 27.2313H250.609V27.2313Z" clip-rule="evenodd"/></g></g></svg>

<svg xmlns="http://www.w3.org/2000/svg" fill="none" aria-hidden="true" viewBox="0 0 275 43"><path fill="#343534" fill-rule="evenodd" d="M21.386 34.145a13.062 13.062 0 1 1 0-26.125 13.06 13.06 0 0 1 9.238 22.3 13.063 13.063 0 0 1-9.238 3.825Zm21.537 3.966-7.959-6.479c2.464-2.976 3.613-6.382 3.613-10.549 0-9.498-7.697-17.192-17.191-17.192s-17.19 7.694-17.19 17.19c0 9.495 7.696 17.193 17.19 17.193 4.03 0 7.73-1.396 10.66-3.717l1.66 3.554h9.217Z" clip-rule="evenodd"/><path fill="#00BFA5" fill-rule="evenodd" d="M25.488 13.793c.249 0 .52.014.81.043 1.756.167 3.788 1.777 4.03 4.86v-.015c0 5.593-8.96 11.14-8.96 11.14s-8.96-5.76-8.96-11.14v.015c.254-3.083 2.28-4.692 4.036-4.862.285-.028.557-.041.813-.041 2.03 0 3 .36 4.112 1.686 1.114-1.327 2.087-1.686 4.119-1.686Z" clip-rule="evenodd"/><path fill="#343534" fill-rule="evenodd" d="M50.24 29.83h4.222v.81c.406 2.394 2.598 3.868 5.748 3.868 3.002 0 4.932-1.169 4.932-3 0-4.477-8.445-1.631-13.02-6.202a6.603 6.603 0 0 1-1.882-4.587c0-4.119 3.559-7.068 8.445-7.068 2.186 0 4.274.508 5.848 1.373v-.965h4.171v7.937h-4.17v-1.48c-1.374-2.03-3.155-2.95-5.599-2.95-2.543 0-4.217 1.169-4.217 2.95 0 4.021 9.254 1.68 13.222 5.648 1.425 1.427 2.044 3.308 2.044 4.986 0 4.375-3.718 7.324-9.214 7.324-2.596 0-4.578-.557-6.308-1.727v1.325H50.24V29.83ZM75.824 7.7H71.5V3.525h9.11v13.279c2.994-2.438 5.384-3.461 7.982-3.461 3.762 0 6.611 1.88 6.611 7.276v13.279h4.126v4.173h-8.908V21.636c0-2.341-.71-4.07-2.946-4.07-1.73 0-4.17 1.12-6.865 3.153V33.9h4.116v4.173H71.45V33.9h4.375V7.7Zm40.286 21.414c-2.034-1.575-4.171-2.39-6.207-2.39-2.645 0-4.575 1.728-4.575 4.118 0 2.346 1.78 3.974 4.323 3.974 2.133 0 4.523-1.072 6.459-2.853v-2.85Zm8.902 8.96h-8.341v-2.957c-2.999 2.442-5.084 3.358-7.732 3.358-4.58 0-8.142-3.358-8.142-7.633 0-4.37 3.818-7.78 8.753-7.78 2.137 0 4.624.763 6.56 2.037V21.94c0-3.406-2.496-4.63-5.339-4.63-2.293 0-4.07.967-5.138 2.856l-4.531-1.228c2.037-3.713 5.495-5.595 10.378-5.595 7.023 0 9.412 3.514 9.412 7.377v13.182h4.12v4.171Zm7.526-19.847h-4.831v-4.168h8.594v5.39h.104c1.528-4.017 4.581-5.799 7.58-5.799h3.098v4.784h-2.541c-5.541 0-7.222 3.101-7.222 8.597v6.87h5.191v4.171h-14.704v-4.17h4.731V18.227Z" clip-rule="evenodd"/><path fill="#343534" fill-rule="evenodd" d="M166.67 23.77c-.762-3.812-4.119-6.613-7.883-6.613-3.764 0-6.616 2.598-7.329 6.613h15.212Zm-15.361 3.464c.716 4.679 3.766 7.373 8.237 7.373 3.106 0 6.005-1.373 7.786-3.914l4.169 1.829c-2.59 4.02-6.919 6.26-12.051 6.26-7.787 0-13.38-5.292-13.38-12.72 0-7.78 6.36-12.719 12.613-12.719 6.666 0 12.818 5.094 12.818 13.891h-20.192Z" clip-rule="evenodd"/><path fill="#00BFA5" fill-rule="evenodd" d="M195.968 23.113h-4.271c-.256-1.684-.964-3.052-2.085-4.016-1.068-.917-2.542-1.429-4.275-1.429-4.274 0-7.121 3.307-7.121 8.139 0 5.142 2.997 8.652 7.323 8.652 3.205 0 5.8-1.684 7.227-4.735l3.915 1.83c-2.086 4.734-6.052 7.227-11.298 7.227-8.338 0-12.253-6.82-12.253-12.92 0-6.92 5.236-12.519 11.8-12.519 2.599 0 4.982.816 6.767 2.342v-1.627h4.271v9.056Zm18.414 6c-2.036-1.574-4.17-2.388-6.207-2.388-2.646 0-4.579 1.727-4.579 4.117 0 2.346 1.784 3.974 4.326 3.974 2.137 0 4.528-1.072 6.46-2.853v-2.85Zm8.901 8.961h-8.344v-2.957c-2.995 2.442-5.08 3.358-7.728 3.358-4.579 0-8.141-3.358-8.141-7.633 0-4.37 3.816-7.78 8.751-7.78 2.134 0 4.629.763 6.561 2.037V21.94c0-3.406-2.497-4.63-5.339-4.63-2.287 0-4.073.967-5.139 2.856l-4.528-1.228c2.034-3.713 5.492-5.595 10.379-5.595 7.016 0 9.412 3.511 9.412 7.377v13.182h4.116v4.171Zm7.53-19.847h-4.831v-4.168h8.593v5.39h.098c1.528-4.017 4.582-5.799 7.58-5.799h3.109v4.784h-2.545c-5.548 0-7.222 3.101-7.222 8.593v6.875h5.189v4.17h-14.701v-4.17h4.73V18.227Zm35.16 5.543c-.767-3.812-4.122-6.613-7.886-6.613-3.768 0-6.618 2.598-7.33 6.613h15.216Zm-15.364 3.461c.709 4.682 3.766 7.376 8.237 7.376 3.106 0 6.003-1.373 7.785-3.914l4.173 1.829c-2.596 4.02-6.922 6.256-12.055 6.256-7.793 0-13.38-5.288-13.38-12.715 0-7.782 6.364-12.72 12.612-12.72 6.668 0 12.823 5.094 12.823 13.888h-20.195Z" clip-rule="evenodd"/></svg>
